assets/img/braze_icons/bell-off-03.svg

<svg fill="none" height="24" viewBox="0 0 24 24" width="24" xmlns="http://www.w3.org/2000/svg"><g clip-rule="evenodd" fill="#801ed7" fill-rule="evenodd"><path d="m15.874 20h3.6208l.8408.7474c.4128.3669 1.0449.3298 1.4118-.083s.3298-1.0449-.083-1.4118l-18.00003-16c-.41278-.36692-1.04485-.32974-1.41177.08305-.36692.41278-.32974 1.04485.08305 1.41177l3.66382 3.25673c-.64283.94819-.99946 2.04975-.99946 3.19585 0 2.1076-.52026 3.5999-1.13272 4.6357l-.01016.0172c-.39379.6659-.7014 1.1862-.90769 1.5596-.10311.1866-.19385.3596-.25981.5077-.03272.0735-.0688.1617-.09692.2554-.02096.0698-.07254.2508-.05109.4703.01178.1205.0388.3598.17814.6041.13933.2442.33156.3893.42928.4607.15925.1165.3186.1664.39796.1884.09366.026.18468.0413.26014.0514.15088.0202.32656.0305.50967.0368.36502.0127.87538.0127 1.51845.0127h2.29075c.44404 1.7252 2.01019 3 3.87399 3s3.43-1.2748 3.874-3zm-3.874 1c-.7403 0-1.3866-.4022-1.7324-1h3.4648c-.3458.5978-.9921 1-1.7324 1z"/><path d="m8.52206 4.89464 11.08504 9.85336c-.3573-.9224-.6071-2.0874-.6071-3.548 0-1.69429-.7778-3.28463-2.1024-4.43264-.4855-.42078-1.031-.77111-1.6169-1.04589.1417-.38041.2193-.79209.2193-1.22147 0-1.933-1.567-3.5-3.5-3.5s-3.5 1.567-3.5 3.5c0 .13339.00749.26507.02206.39464zm3.47794-1.89464c-.8284 0-1.5.67157-1.5 1.5 0 .22109.0474.43048.133.61912.4481-.07885.9059-.11912 1.367-.11912s.9189.04027 1.367.11911c.0856-.18863.133-.39803.133-.61911 0-.82843-.6716-1.5-1.5-1.5z"/></g></svg>

<svg width="24" height="24" viewBox="0 0 24 24" fill="none" xmlns="http://www.w3.org/2000/svg">
<path fill-rule="evenodd" clip-rule="evenodd" d="M15.874 20H19.4948L20.3356 20.7474C20.7484 21.1143 21.3805 21.0772 21.7474 20.6644C22.1143 20.2516 22.0772 19.6195 21.6644 19.2526L3.66437 3.2526C3.25159 2.88568 2.61952 2.92286 2.2526 3.33565C1.88568 3.74843 1.92286 4.3805 2.33565 4.74742L5.99947 8.00415C5.35664 8.95234 5.00001 10.0539 5.00001 11.2C5.00001 13.3076 4.47975 14.7999 3.86729 15.8357L3.85713 15.8529C3.46334 16.5188 3.15573 17.0391 2.94944 17.4125C2.84633 17.5991 2.75559 17.7721 2.68963 17.9202C2.65691 17.9937 2.62083 18.0819 2.59271 18.1756C2.57175 18.2454 2.52017 18.4264 2.54162 18.6459C2.5534 18.7664 2.58042 19.0057 2.71976 19.25C2.85909 19.4942 3.05132 19.6393 3.14904 19.7107C3.30829 19.8272 3.46764 19.8771 3.547 19.8991C3.64066 19.9251 3.73168 19.9404 3.80714 19.9505C3.95802 19.9707 4.1337 19.981 4.31681 19.9873C4.68183 20 5.19219 20 5.83526 20H8.12601C8.57005 21.7252 10.1362 23 12 23C13.8638 23 15.43 21.7252 15.874 20ZM12 21C11.2597 21 10.6134 20.5978 10.2676 20H13.7324C13.3866 20.5978 12.7403 21 12 21Z" fill="#801ED7"/>
<path fill-rule="evenodd" clip-rule="evenodd" d="M8.52206 4.89464L19.6071 14.748C19.2498 13.8256 19 12.6606 19 11.2C19 9.50571 18.2222 7.91537 16.8976 6.76736C16.4121 6.34658 15.8666 5.99625 15.2807 5.72147C15.4224 5.34106 15.5 4.92938 15.5 4.5C15.5 2.567 13.933 1 12 1C10.067 1 8.5 2.567 8.5 4.5C8.5 4.63339 8.50749 4.76507 8.52206 4.89464ZM12 3C11.1716 3 10.5 3.67157 10.5 4.5C10.5 4.72109 10.5474 4.93048 10.633 5.11912C11.0811 5.04027 11.5389 5 12 5C12.4611 5 12.9189 5.04027 13.367 5.11911C13.4526 4.93048 13.5 4.72108 13.5 4.5C13.5 3.67157 12.8284 3 12 3Z" fill="#801ED7"/>
</svg>
